packages/dnb-ui-lib/assets/icons/information_medium.svg

<svg width="24" height="24" viewBox="0 0 24 24" fill="none" xmlns="http://www.w3.org/2000/svg">
<path fill-rule="evenodd" clip-rule="evenodd" d="M10.7491 5.99822C11.577 5.99822 12.2482 5.32705 12.2482 4.49911C12.2482 3.67118 11.577 3 10.7491 3C9.92118 3 9.25 3.67118 9.25 4.49911C9.25 5.32705 9.92118 5.99822 10.7491 5.99822ZM9.25 8.99602C8.83579 8.99602 8.5 9.3318 8.5 9.74602C8.5 10.1602 8.83579 10.496 9.25 10.496H10.3743C10.5811 10.496 10.7487 10.6636 10.7487 10.8703V18.492C10.7487 20.1481 12.0912 21.4907 13.7473 21.4907H14.8717C15.2859 21.4907 15.6217 21.1549 15.6217 20.7407C15.6217 20.3265 15.2859 19.9907 14.8717 19.9907H13.7473C12.9196 19.9907 12.2487 19.3197 12.2487 18.492V10.8703C12.2487 9.83518 11.4095 8.99602 10.3743 8.99602H9.25Z" fill="black"/>
</svg>

<svg width="24" height="24" viewBox="0 0 24 24" fill="none" xmlns="http://www.w3.org/2000/svg"><path fill-rule="evenodd" clip-rule="evenodd" d="M10.75 5.998a1.5 1.5 0 100-2.998 1.5 1.5 0 000 2.998zm-1.5 2.998a.75.75 0 100 1.5h1.124c.207 0 .375.168.375.374v7.622a2.999 2.999 0 002.998 2.999h1.125a.75.75 0 000-1.5h-1.125a1.499 1.499 0 01-1.498-1.499V10.87c0-1.035-.84-1.874-1.875-1.874H9.25z" fill="#000"/></svg>
